X:1
T:Robbie Tampson's Smitty
M:2/4
L:1/16
K:C
 D2| G G3 G3 A| G3- F D3 E| F3 F F3 G| A c3- c3 c| d3 c _B3 B| A A3 D3 d|\
 d3 c _B3 A| A G3- G2||

